src/assets/icons/letters,fancy,serif-j.svg

<svg width="48" height="48" viewBox="0 0 48 48" fill="none" xmlns="http://www.w3.org/2000/svg">
<path d="M21.2027 13.592C21.2027 12.7053 21.152 11.996 21.0507 11.464C20.9747 10.9067 20.81 10.476 20.5567 10.172C20.3034 9.84267 19.936 9.62733 19.4547 9.526C18.9987 9.39933 18.378 9.31067 17.5927 9.26V7.74H30.3987V9.26C29.6134 9.28533 28.98 9.36133 28.4987 9.488C28.0174 9.61467 27.65 9.84267 27.3967 10.172C27.1434 10.5013 26.9787 10.9573 26.9027 11.54C26.8267 12.1227 26.7887 12.8953 26.7887 13.858V37.076C26.7887 40.268 25.978 42.7 24.3567 44.372C22.7354 46.044 20.316 46.88 17.0987 46.88C14.7934 46.88 13.02 46.4873 11.7787 45.702C10.512 44.9167 9.87869 43.916 9.87869 42.7C9.87869 41.9653 10.1194 41.3953 10.6007 40.99C11.0567 40.61 11.6267 40.42 12.3107 40.42C12.8934 40.42 13.362 40.572 13.7167 40.876C14.046 41.18 14.464 41.75 14.9707 42.586C15.4774 43.422 15.9334 43.9793 16.3387 44.258C16.744 44.5367 17.238 44.676 17.8207 44.676C18.91 44.676 19.746 44.0807 20.3287 42.89C20.9114 41.6993 21.2027 40.0273 21.2027 37.874V13.592Z" fill="black"/>
</svg>

<svg xmlns="http://www.w3.org/2000/svg" width="48" height="48" fill="none" viewBox="0 0 48 48">
  <path fill="#000" d="M21.203 13.592c0-.887-.051-1.596-.152-2.128-.076-.557-.241-.988-.494-1.292-.254-.33-.621-.545-1.102-.646-.456-.127-1.077-.215-1.862-.266V7.74h12.806v1.52c-.786.025-1.419.101-1.9.228-.482.127-.849.355-1.102.684-.254.33-.418.785-.494 1.368-.076.583-.114 1.355-.114 2.318v23.218c0 3.192-.811 5.624-2.432 7.296-1.622 1.672-4.041 2.508-7.258 2.508-2.306 0-4.079-.393-5.32-1.178-1.267-.785-1.9-1.786-1.9-3.002 0-.735.24-1.305.722-1.71.456-.38 1.026-.57 1.71-.57.582 0 1.051.152 1.406.456.329.304.747.874 1.254 1.71.506.836.962 1.393 1.368 1.672.405.279.899.418 1.482.418 1.089 0 1.925-.595 2.508-1.786.582-1.19.874-2.863.874-5.016V13.592z"/>
</svg>
